X:12379
T:Old Through The Wood Laddie. JC.125
T:Through The Wood Laddie,Old Way. JC.125
M:3/4
L:1/8
Q:120
S:John Clare,Poet,Helpston. (1793-1864)
R:Air
O:England
A:Northamptonshire
N:
Z:P Headford
K:F
"Key C in MS"FC|D3D FG|A4fc|d2fd cA|G4FG|"crot"A3B AG|A2F2FG|
AGAG AG|A2GFEC|!"crot"D3E FA|A4fg|ag/g/ edcA|G3A Bc|
d2fdcA|c2dBAG|A2DFEG|F4:|!
|:fc|d3e fg|a4fg|a2bagf|g4ff|ag abag|a2f2fg|ag abag|g2gf ec|!
d3e fg|a4fg|bg/f/ ecBG|G3A Bc|d2ff cA|c2dcBA|A2DFEG|G4:|]
W:Song text exists. See Deacon.
